X: 12617
T: Farewell To Whalley Range
R: slip jig
M: 9/8
K: Bminor
F2 c BAF FFE|F2 c Bce fec|B3 BAB cBA|B2 B BAB cBA|
F2 c BAF FFE|F2 c Bce fec|B3 BAB cBA|B2 B BAB cef|
a2 f fec fec|B2 B BAB cef|a2 f baf afe|fec Bce fec|
a2 f fec fec|B2 B BAB cef|a2 f baf afe|fec fec BA[EB]||

